assets/icons/filter.svg

<svg width="16" height="16" viewBox="0 0 16 16" fill="none" xmlns="http://www.w3.org/2000/svg">
<path d="M0.5 1.75C0.5 1.05964 1.05964 0.5 1.75 0.5H14.25C14.9404 0.5 15.5 1.05964 15.5 1.75V3.98247L10.1875 7.10747V15.5H5.8125V7.10747L0.5 3.98247V1.75ZM14.25 1.75H1.75V3.26753L7.0625 6.39253V14.25H8.9375V6.39253L14.25 3.26753V1.75Z" fill="white"/>
</svg>

<svg xmlns="http://www.w3.org/2000/svg" width="16" height="16" fill="none" data-c="1"><path fill="#fff" d="M.5 1.75C.5 1.06 1.06.5 1.75.5h12.5c.69 0 1.25.56 1.25 1.25v2.232l-5.312 3.125V15.5H5.812V7.107L.5 3.982zm13.75 0H1.75v1.518l5.313 3.125v7.857h1.875V6.393l5.312-3.125z"/></svg>
